X:143
T:RVW2/2/143 What's The Life Of A Man
C:Jj.W. Wright, Coombe Bissett, Wiltshire, 2 September 1904
L:1/8
Q:1/4=80
M:4/4
I:linebreak $
K:G
"^(Editorial suggestion " (3(DEF) | G2 G>A G2 FE | (CE)EE E3 E |$ (AE)AB c2 BA | 
w: As _ _|I was a- walk- ing one|morn _ at my ease a-|view- * ing the leaves as they|
G2 G>A B2 (3(DEF) | G2 GA G2 FE |$ (CA)AA A2 GA | B2 AB (dc)BA | G2 B>A G2 |] 
w: fell from the trees their _ _|rol- ling- full(?) mo- tion ap-|peared _ fine and gay like the|leaf they must with- * er and|soon fade a- way.|



